!!!!SEGMENT:40Mysterioso_c.krn
!!!OTL: Mysterioso（怪異）
!!!OPR:Eiga Banso Kyokusyu,jidai-geki,zenpen
!!!YOY:1929
!!!ONB:Mysterioso,Shinobikomi,Seisan
**kern
*clefG2
*c:
*M4/4
*met(c)
=1
!LO:TX:a:B:t=Andante
8cL
8r
8e-J
8r
8a-L
8r
8r
8gJ
=2
8f#XL
8r
8g
8r
8e-
8r
8dJ
8r
=3
8cL
8r
8e-J
8r
8gL
8r
8ccJ
8r
=4
2.ee-
4r
=5
8ccL
8r
8gJ
8r
8a-L
8r
8r
8fJ
=6
8gL
8r
8d
8r
8e-
8r
8cJ
8r
=7
8.dL
16e-Jk
8.fL
16a-Jk
8gL
8r
8gJ
8r
=8
2.c
4r
=9
8.cL
16cck
8.b-
16a-Jk
8gL
8r
8cJ
8r
=10
8e-
8r
8e-
4r
8r
4g
=11
8.cL
16ccJk
8.b-L
16a-Jk
8gL
8r
8e-J
8r
=12
8dL
8r
8gJ
8r
8.r
16f
8.e-L
16dJk
=13
8.cL
16dJk
8e-
8r
4r
8en
8r
=14
8.fL
16gJk
8a-
8r
4r
8f
8r
=15
8gL
8r
8f
8r
8e-
8r
8dJ
8r
=16
2.c
4r
==
*-
!!!ENC: Yukiko Yoden
!!!END: 2023/06/11
